"Hola Mundo".postln;

"3+3";
//Esto es un Comentario
3+3;
//Esto es un Comentario
4+12

//VARIABLE LOCAL
(var hola=3;
hola + 5)

//VARIABLE GLOBAL
~hola=8
~hola+8

s.boot;
{SinOsc.ar(1200,0,0.7)}.play

